X: 1
T: All Around the World
R: reel
Z: 2012 John Chambers <jc@trillian.mit.edu>
B: "100 Essential Irish Session Tunes" 1995 Dave Mallinson, ed.
M: 4/4
L: 1/8
K: D
DE |\
"D"F3G FEDE | FAAB AFED | "G"d2eg "D"fdec | "Bm"dBAF "A7"BEEG |
"D"F2FG FEDE | FAAB AFED | "G"d2eg "D"fdec | "Bm"dB"A7"AG "D"FD :|
|: FA |\
"D"d2AG FDFA | dfaf "A7"gfeg | "D"fAdf "A"eAce | "E7"dfed "A"cAAc |
"G"BEGB | "D"ADFA | "D"dfaf "Em"gfed | "G"Bdce dBAF | "A7"((3GBG) EG "D"FD :|

%%sep 2 1 500
%%sep 1 1 500

